!!!COM:	Anonymous
!!!OPR:	Missa [Bergerette savoysienne]
!!!ONM:	4
!!!OTL:	Sanctus
!!!AGN:	Mass; Sanctus
!!!SCT:	Ano1001d
!!!SCA:	Ano1001d
!!!SMS:	Jena 32
!!!folio-OPR:	250r-264r
!!!folio:	
!!!voices:	4
**kern	**kern	**kern	**kern
*staff4	*staff3	*staff2	*staff1
*Ivox	*Ivox	*Ivox	*Ivox
*I"Bassus	*I"Tenor	*I"Altus	*I"Superius
*I'B	*I'T	*I'A	*I'S
*>[A,B,C,D,E,D]	*>[A,B,C,D,E,D]	*>[A,B,C,D,E,D]	*>[A,B,C,D,E,D]
*>A	*>A	*>A	*>A
*clefF4	*clefGv2	*clefGv2	*clefG2
*k[]	*k[]	*k[]	*k[]
*M2/1	*M2/1	*M2/1	*M2/1
*met(C)	*met(C)	*met(C)	*met(C)
!!section: Sanctus
!!!OMD: Sanctus
=1-	=1-	=1-	=1-
0r	0r	0c	0r
=2	=2	=2	=2
0r	0r	1d	1r
.	.	[1e	[1cc
=3	=3	=3	=3
0r	0r	2e]	1cc]
.	.	2.f	.
.	.	.	1dd
.	.	4d	.
.	.	4f	.
.	.	8eL	.
.	.	8dJ	.
=4	=4	=4	=4
0r	0r	2c	1ee
.	.	2g	.
.	.	4a	1ee
.	.	4g	.
.	.	[2cc	.
=5	=5	=5	=5
0r	0r	4cc]	2ee
.	.	4b	.
.	.	2a	2.ee
.	.	2g	.
.	.	.	4dd
.	.	[2a	[2cc
=6	=6	=6	=6
0r	0r	2a]	2cc]
.	.	4g	4b
.	.	4f	4a
.	.	2g	1b
.	.	4d	.
.	.	4e	.
=7	=7	=7	=7
0r	0r	4f	1r
.	.	2g	.
.	.	4f	.
.	.	2d	1ff
.	.	[2a	.
=8	=8	=8	=8
0r	0r	2a]	2ff
.	.	2g	2ee
.	.	4e	4cc
.	.	2f	2dd
.	.	8eL	8ccL
.	.	8dJ	8bJ
=9	=9	=9	=9
1r	0r	2c	4a
.	.	.	4g
.	.	2e	1cc
1G	.	1d	.
.	.	.	2b
=10	=10	=10	=10
2.C	0c	2.c	0cc
4D	.	4B	.
2E	.	2G	.
[2F	.	[2A	.
=11	=11	=11	=11
2F]	1d	2A]	1r
2G	.	2B	.
2.E	1e	2c	2.g
.	.	[2B	.
4F	.	.	4a
=12	=12	=12	=12
2G	1e	2B]	2b
1A	.	2A	2cc
.	2e	2c	2a
2G	[2e	[2B	[2b
=13	=13	=13	=13
1E	4e]	2B]	2b]
.	4d	.	.
.	1c	1e	2g
1F	.	.	1a
.	4B	2d	.
.	4A	.	.
=14	=14	=14	=14
1.E	1B	1e	1.g
.	2r	2e	.
[2A	[2c	[2e	[2cc
=15	=15	=15	=15
1A]	4c]	2e]	2cc]
.	4d	.	.
.	4e	4d	4b
.	4f	4c	4a
2G	2g	2d	2b
2c	2c	2e	2cc
=16	=16	=16	=16
2B	4g	2d	2dd
.	4f	.	.
2c	4e	1g	2.ee
.	4d	.	.
1A	1c	.	.
.	.	.	4dd
.	.	2f#i	2cc
=17	=17	=17	=17
0G	0d	0g	1.b
.	.	.	[2dd
=18	=18	=18	=18
0D	1.f	1a	2dd]
.	.	.	4cc
.	.	.	4b
.	.	2a	1a
.	4e	[2f	.
.	4d	.	.
=19	=19	=19	=19
1F	2c	4f]	2r
.	.	4e	.
.	2d	1d	2a
1E	1G	.	1ee
.	.	2c#i	.
=20	=20	=20	=20
0D	1.A	0d	0ff
.	2B	.	.
=21	=21	=21	=21
1C	1c	2.G	1ee
.	.	4A	.
[1BB-	[1f	[1B-	[1dd
=22	=22	=22	=22
1BB-]	1f]	1B-]	1dd]
1C	1e	1G	2.ee
.	.	.	8ddL
.	.	.	8ccJ
=23	=23	=23	=23
0G	1.d	1r	2b
.	.	.	1cc
.	.	1g	.
.	4c	.	2b
.	4d	.	.
=24	=24	=24	=24
2.A	0c	2.e	2.cc
8GL	.	4f	8bL
8FJ	.	.	8aJ
2E	.	2g	2g
2F	.	2f	2a
=25	=25	=25	=25
2G	2B	2d	2g
1E	4c	2.e	2.gg
.	4B	.	.
.	1c	.	.
.	.	4f	4ff
2C	.	[2g	4ee
.	.	.	8ddL
.	.	.	8ccJ
=26	=26	=26	=26
1G	0d	1g]	2b
.	.	.	4cc
.	.	.	2dd
2r	.	2f	.
.	.	.	2cc
2G	.	2g	.
.	.	.	4b
=27	=27	=27	=27
2A	[0cl	2e	[0ccl
1F	.	1f	.
2E	.	2g	.
=28	=28	=28	=28
2F	0c_	2a	0cc_
2C	.	2g	.
2.F	.	4f	.
.	.	2a	.
8EL	.	8gL	.
8DJ	.	8fJ	.
=29	=29	=29	=29
0Cl	0c]	0gl	0cc]
!!LO:LB:i:g=z
=30||	=30||	=30||	=30||
*>B	*>B	*>B	*>B
*clefF4	*clefGv2	*clefGv2	*clefG2
*k[]	*k[]	*k[]	*k[]
*M2/1	*M2/1	*M2/1	*M2/1
*met(C|)	*met(C|)	*met(C|)	*met(C|)
!!section: Pleni sunt celi
!!!OMD: Pleni sunt celi
0r	0r	0r	1.dd
.	.	.	4cc
.	.	.	4b
=31	=31	=31	=31
0r	0r	1r	1cc
.	.	[1g	2dd
.	.	.	[2b
=32	=32	=32	=32
0r	0r	2g]	2b]
.	.	4f	4a
.	.	4e	4g
.	.	1f	1a
=33	=33	=33	=33
0r	0r	2g	1g
.	.	1e	.
.	.	.	1r
.	.	4d	.
.	.	4c	.
=34	=34	=34	=34
0r	0r	1d	1dd
.	.	1c	2ee
.	.	.	[2cc
=35	=35	=35	=35
0r	0r	1r	2cc]
.	.	.	4b
.	.	.	4a
.	.	1g	1b
=36	=36	=36	=36
0r	0r	2a	1a
.	.	1f	.
.	.	.	1r
.	.	4e	.
.	.	4d	.
=37	=37	=37	=37
0r	0r	1e	1ee
.	.	1d	2ff
.	.	.	[2dd
=38	=38	=38	=38
0r	0r	1r	2dd]
.	.	.	4cc
.	.	.	4b
.	.	1a	1cc
=39	=39	=39	=39
0r	0r	2b	1b
.	.	1g	.
.	.	.	2r
.	.	4f	[2ee
.	.	4e	.
=40	=40	=40	=40
0r	0r	1f	2ee]
.	.	.	2dd
.	.	1e	2cc
.	.	.	4b
.	.	.	4a
=41	=41	=41	=41
0r	0r	2r	2g
.	.	2.e	2.cc
.	.	4d	4b
.	.	4e	4cc
.	.	4f	4dd
=42	=42	=42	=42
0r	0r	2d	2b
.	.	2e	2cc
.	.	2f	2dd
.	.	[2g	[2ee
=43	=43	=43	=43
0r	0r	4g]	4ee]
.	.	4f	4dd
.	.	4g	4ee
.	.	4a	4ff
.	.	2f	2dd
.	.	4g	4ee
.	.	4f	4dd
=44	=44	=44	=44
0r	0r	4e	4cc
.	.	4d	4b
.	.	2.g	2ee
.	.	.	2dd
.	.	4f	.
.	.	2e	2cc
=45	=45	=45	=45
0r	0r	2d	2dd
.	.	1g	4cc
.	.	.	4b
.	.	.	1a
.	.	2f#i	.
=46	=46	=46	=46
0r	0r	0gl	0gl
!!LO:LB:i:g=z
=47||	=47||	=47||	=47||
*>C	*>C	*>C	*>C
*clefF4	*clefGv2	*clefGv2	*clefG2
*k[]	*k[]	*k[]	*k[]
*M2/1	*M2/1	*M2/1	*M2/1
*met(C|)	*met(C|)	*met(C|)	*met(C|)
!	!LO:TX:Z=19:t=(Same music as the Pleni, down a fifth)	!	!
!!section: Gloria tua
!!!OMD: Gloria tua
0r	1.g	0r	0r
.	4f	.	.
.	4e	.	.
=48	=48	=48	=48
1r	1f	0r	0r
[1c	2g	.	.
.	[2e	.	.
=49	=49	=49	=49
2c]	2e]	0r	0r
4B	4d	.	.
4A	4c	.	.
1B	1d	.	.
=50	=50	=50	=50
2c	1c	0r	0r
1A	.	.	.
.	1r	.	.
4G	.	.	.
4F	.	.	.
=51	=51	=51	=51
1G	1g	0r	0r
1F	2a	.	.
.	[2f	.	.
=52	=52	=52	=52
1r	2f]	0r	0r
.	4e	.	.
.	4d	.	.
1c	1e	.	.
=53	=53	=53	=53
2d	1d	0r	0r
1B	.	.	.
.	1r	.	.
4A	.	.	.
4G	.	.	.
=54	=54	=54	=54
1A	1a	0r	0r
1G	2b	.	.
.	[2g	.	.
=55	=55	=55	=55
1r	2g]	0r	0r
.	4f	.	.
.	4e	.	.
1d	1f	.	.
=56	=56	=56	=56
2e	1e	0r	0r
1c	.	.	.
.	2r	.	.
4B	[2a	.	.
4A	.	.	.
=57	=57	=57	=57
1B	2a]	0r	0r
.	2g	.	.
1A	2f	.	.
.	4e	.	.
.	4d	.	.
=58	=58	=58	=58
2r	2c	0r	0r
2.A	2.f	.	.
4G	4e	.	.
4A	4f	.	.
4B	4g	.	.
=59	=59	=59	=59
2G	2e	0r	0r
2A	2f	.	.
2B	2g	.	.
[2c	[2a	.	.
=60	=60	=60	=60
4c]	4a]	0r	0r
4B	4g	.	.
4c	4a	.	.
4d	4b	.	.
2B	2g	.	.
4c	4a	.	.
4B	4g	.	.
=61	=61	=61	=61
4A	4f	0r	0r
4G	4e	.	.
2.c	2a	.	.
.	2g	.	.
4B	.	.	.
2A	2f	.	.
=62	=62	=62	=62
2G	2g	0r	0r
1c	4f	.	.
.	4e	.	.
.	1d	.	.
2B	.	.	.
=63	=63	=63	=63
0cl	0cl	0r	0r
!!LO:LB:i:g=z
=64||	=64||	=64||	=64||
*>D	*>D	*>D	*>D
*clefF4	*clefGv2	*clefGv2	*clefG2
*k[]	*k[]	*k[]	*k[]
*M2/1	*M2/1	*M2/1	*M2/1
*met(C|)	*met(C|)	*met(C|)	*met(C|)
!!section: Osanna
!!!OMD: Osanna
0C	1e	0c	0cc
.	1e	.	.
=65	=65	=65	=65
1G	1d	1B	1dd
2C	[1g	1c	1ee
2c	.	.	.
=66	=66	=66	=66
2G	1g]	2d	2dd
2B	.	2G	2b
1A	1f#i	1c	1cc
=67	=67	=67	=67
1G	[0g	2d	1b
.	.	2B	.
1C	.	1c	[1e
=68	=68	=68	=68
0E	0g]	2B	1e]
.	.	1G	.
.	.	.	1c
.	.	[2g	.
=69	=69	=69	=69
1D	0a	2g]	1r
.	.	4f#i	.
.	.	4e	.
2r	.	1f#i	1d
2D	.	.	.
=70	=70	=70	=70
2E	0g	2g	2B
2C	.	2G	1e
1c	.	2A	.
.	.	[2c	4d
.	.	.	4c
=71	=71	=71	=71
1G	0r	2c]	1d
.	.	2B	.
1C	.	1c	2c
.	.	.	[2cc
=72	=72	=72	=72
0r	1.f	2A	2cc]
.	.	1B-	1dd
.	2f	4A	4cc
.	.	4G	4b
=73	=73	=73	=73
1r	1f	1F	1a
[1C	[1e	[1c	[1g
=74	=74	=74	=74
1C]	2e]	1c]	2g]
.	2d	.	2.a
1D	[1d	[1A	.
.	.	.	4g
.	.	.	[2f
=75	=75	=75	=75
0A	1d]	1A]	2f]
.	.	.	4e
.	.	.	4d
.	1c#i	[1a	1e
=76	=76	=76	=76
0D	1d	1a]	2d
.	.	.	1dd
.	[1a	[1f	.
.	.	.	4cc
.	.	.	4b
=77	=77	=77	=77
0r	1a]	1f]	1cc
.	[1g	1g	[1b
=78	=78	=78	=78
0r	1g]	1e	1b]
.	1f	[1a	1a
=79	=79	=79	=79
0r	0e	2a]	1b
.	.	2g	.
.	.	[1g	1cc
=80	=80	=80	=80
0D	0d	1g]	0a
.	.	1f#i	.
=81	=81	=81	=81
1r	0r	2r	0g
.	.	1g	.
1G	.	.	.
.	.	4f	.
.	.	4e	.
=82	=82	=82	=82
2A	0r	2f	0r
2B	.	2g	.
2c	.	2e	.
[2d	.	[2f	.
=83	=83	=83	=83
2d]	0r	2f]	1r
1c	.	2e	.
.	.	1d	2r
2B	.	.	2dd
=84	=84	=84	=84
1c	1r	2c	2ee
.	.	1e	1gg
1r	2r	.	.
.	2d	2f	2ff
=85	=85	=85	=85
1r	1.e	0g	2ee
.	.	.	4dd
.	.	.	4cc
2r	.	.	1b
2G	2d	.	.
=86	=86	=86	=86
2A	1c	2r	2r
2c	.	2g	1ee
1G	1B	1g	.
.	.	.	2dd
=87	=87	=87	=87
1C	1c	2r	1cc
.	.	2g	.
2r	1d	1g	1b
2G	.	.	.
=88	=88	=88	=88
2A	1r	2r	2r
2c	.	2g	1ee
1G	2r	1g	.
.	2d	.	2dd
=89	=89	=89	=89
1C	1.e	2r	1cc
.	.	2g	.
2r	.	1g	1b
2G	2d	.	.
=90	=90	=90	=90
2A	1c	2r	2r
2c	.	2g	1ee
1G	1B	1g	.
.	.	.	2dd
=91	=91	=91	=91
1C	1c	2r	1cc
.	.	2g	.
2r	1d	1g	1b
2G	.	.	.
=92	=92	=92	=92
2A	0r	2r	2r
2c	.	2g	1ee
1G	.	2.g	.
.	.	.	2dd
.	.	4f	.
=93	=93	=93	=93
2.C	1.g	4e	2cc
.	.	4d	.
.	.	1c	1ee
4D	.	.	.
2E	.	.	.
2F	2f	2d	2dd
=94	=94	=94	=94
2C	2e	2e	2cc
2r	2d	2f	2ff
1C	1c	1g	2ee
.	.	.	4dd
.	.	.	4ee
=95	=95	=95	=95
1F	0d	2f	4ff
.	.	.	4ee
.	.	2a	4dd
.	.	.	4cc
1G	.	1g	2.b
.	.	.	4a
=96	=96	=96	=96
1C	0c	2e	2.cc
.	.	2g	.
.	.	.	4b
1r	.	2f	2a
.	.	[2e	[2g
=97	=97	=97	=97
0r	0G	2e]	2g]
.	.	4d	4f
.	.	4c	4e
.	.	1B	1d
=98	=98	=98	=98
[0C	1.g	0c	1.c
.	2f	.	[2cc
=99	=99	=99	=99
0C]	2e	0G	2cc]
.	2d	.	2dd
.	1c	.	2ee
.	.	.	4dd
.	.	.	4cc
=100	=100	=100	=100
0G	0d	1r	2b
.	.	.	1cc
.	.	1G	.
.	.	.	2b
=101	=101	=101	=101
[0Cl	[0cl	2E	[0ccl
.	.	1A	.
.	.	4G	.
.	.	4F	.
=102	=102	=102	=102
0C]	0c]	0Gl	0cc]
!!LO:LB:i:g=z
!!LO:TX:rj:i:Y=40:t=fine
=103||	=103||	=103||	=103||
*>E	*>E	*>E	*>E
*clefF4	*clefGv2	*clefGv2	*clefG2
*k[]	*k[]	*k[]	*k[]
*M2/1	*M2/1	*M2/1	*M2/1
*met(C|)	*met(C|)	*met(C|)	*met(C|)
!!section: Benedictus
!!!OMD: Benedictus
1.c	0c	0r	0r
4B	.	.	.
4A	.	.	.
=104	=104	=104	=104
1B	1d	0r	0r
1c	1e	.	.
=105	=105	=105	=105
2.A	2.f	0r	0r
4G	4e	.	.
4F	4d	.	.
4E	4c	.	.
[2G	[2e	.	.
=106	=106	=106	=106
4G]	4e]	0r	0r
4F	4d	.	.
2E	1c	.	.
1D	.	.	.
.	2B	.	.
=107	=107	=107	=107
1C	2c	1r	0r
.	1g	.	.
1r	.	1g	.
.	4f	.	.
.	4e	.	.
=108	=108	=108	=108
0r	1f	1a	0r
.	2d	1b	.
.	[2e	.	.
=109	=109	=109	=109
0r	2e]	1cc	0r
.	4d	.	.
.	4c	.	.
.	2d	2b	.
.	[2c	4a	.
.	.	4g	.
=110	=110	=110	=110
1r	2c]	4f	0r
.	.	4e	.
.	2B	1g	.
1D	1A	.	.
.	.	2f#i	.
=111	=111	=111	=111
2.E	1G	2.g	0r
4F	.	4f	.
2G	1r	4e	.
.	.	4d	.
4A	.	[2c	.
4G	.	.	.
=112	=112	=112	=112
4F	0r	2c]	0r
4E	.	.	.
1G	.	2B	.
.	.	1A	.
2F#i	.	.	.
=113	=113	=113	=113
1G	1r	2G	0r
.	.	1g	.
1r	1G	.	.
.	.	4f	.
.	.	4e	.
=114	=114	=114	=114
0r	2.A	2f	0r
.	.	2.e	.
.	4B	.	.
.	2c	.	.
.	.	4c	.
.	[2d	[2f	.
=115	=115	=115	=115
1r	4d]	4f]	0r
.	4c	4e	.
.	1c	4d	.
.	.	4c	.
1G	.	1d	.
.	2B	.	.
=116	=116	=116	=116
2.A	2.c	1c	0r
4B	4d	.	.
2c	2e	1r	.
4d	[2f	.	.
4c	.	.	.
=117	=117	=117	=117
4B	4f]	1r	0r
4A	4g	.	.
1c	2e	.	.
.	1d	2r	.
2B	.	2d	.
=118	=118	=118	=118
1c	1c	1e	0r
1r	2r	1f	.
.	2c	.	.
=119	=119	=119	=119
1r	1e	1g	0r
2r	1f	1r	.
2d	.	.	.
=120	=120	=120	=120
1c	4g	0r	0r
.	4f	.	.
.	4e	.	.
.	4d	.	.
2B	2g	.	.
[2A	[2f	.	.
=121	=121	=121	=121
2A]	4f]	1r	0r
.	4e	.	.
2G	1e	.	.
1F	.	2r	.
.	2d	2a	.
=122	=122	=122	=122
1E	1e	2.g	0r
.	.	4e	.
2r	1r	2f	.
2A	.	[2e	.
=123	=123	=123	=123
2G	0r	2e]	0r
2F	.	2d	.
1E	.	1e	.
=124	=124	=124	=124
1D	2r	0r	0r
.	2f	.	.
2r	2.e	.	.
2G	.	.	.
.	4c	.	.
=125	=125	=125	=125
2F	2d	2r	0r
2E	1c	2c	.
1D	.	1d	.
.	2B	.	.
=126	=126	=126	=126
1C	2.c	1e	0r
.	4B	.	.
1r	2A	2f	.
.	[2G	[2g	.
=127	=127	=127	=127
1r	4G]	2g]	0r
.	4A	.	.
.	4B	4f	.
.	4c	4e	.
2r	2d	2f	.
[2C	[2e	[2g	.
=128	=128	=128	=128
4C]	4e]	4g]	0r
4D	4d	4f	.
2E	1c	2e	.
2F	.	2d	.
2G	2B	2d	.
=129	=129	=129	=129
0Cl	0cl	0cl	0r
!!LO:TX:i:Y=40:rj:t=[Osanna ut supra]
=||	=||	=||	=||
*-	*-	*-	*-
!!!RDF**kern: l=long note in original notation
!!!RDF**kern: i=editorial accidental
!!!ENC:	Jesse Rodin 8/14/2013
!!!END:	2013/08/14/
!!!EED:	Jesse Rodin
!!!EEV:	2013/08/14/
!!!ONB:	Translated from MusicXML and edited on 2013/08/14/ by Craig Sapp
!!muse2ps: T^@{OPR}^u^@{ONM}{. }@{OTL}^C^@{COM}\n@{SMS}, @{folio-OPR}^i2I150v85,85,85,150c150
